X:40
T: Der Werber und der Jude
N: Q0131A
O: Mitteleuropa, Deutschland / Frankreich, Lothringen, Kr. Saargemuend,
R: Ballade, Braut - Werbung, Erpressung
M: 4/4
L: 1/8
K: G
d2 | d2e2d2B2 | G2E2D2
D2 | G2B2AAG2 | F2FFG2
G2 | d2d2d2d2 | d4G2
d2 | d2c2B2A2 | G2E2D2
D2 | G2A2B2B2 | A4G2

@@@ Tune index: 1538
